X:39
T:Our Jean's aye in the right o't
Z:Jack Campin - http://www.campin.me.uk
S:Blaikie MS (NLS MS.1578) p14
N:Blaikie #38
M:C|
L:1/8
V:1 midi program 1 74
V:2 midi program 1 46 bass middle = d transpose -24
Q:1/2=80
K:Bb
[V:1] f4     e4   |d2 ed c2F2|BcdB c2F2|BcdB c2F2|
[V:2] b2d'2  c'2a2|b2 B2 f2a2|b4   a4  |b2B2 f2z2|
%
[V:1] f2(gf) e2 fe|d2 ed c2F2|Bcde dcBA|B4   B,4||
[V:2] d'2z2  c'2z2|b2 b2 f2a2|b2g2 f2F2|B4   B4 ||
%
[V:1] D3  F  D3  F|D2F2- F2ED|C3 E C3 E|C2E2 E2DC|
[V:2] B4     B4   |B4    b4  |f4   f4  |a4   a2f2|
%
[V:1] D3  F  D3  F|D2F2- F2e2|d3 B c2BA|B4   B,4|]
[V:2] B4     B4   |B4    d2e2|f4   F2F2|B4   B4 |]
W:Transcription (c) Jack Campin 2009, no mirroring or republication without permission

